src/images/home/clay_logo_col.svg

<?xml version="1.0" encoding="UTF-8"?>
<svg width="56px" height="74px" viewBox="0 0 56 74" version="1.1" xmlns="http://www.w3.org/2000/svg" xmlns:xlink="http://www.w3.org/1999/xlink">
    <!-- Generator: Sketch 46.2 (44496) - http://www.bohemiancoding.com/sketch -->
    <title>Group 5</title>
    <desc>Created with Sketch.</desc>
    <defs></defs>
    <g id="Page-1" stroke="none" stroke-width="1" fill="none" fill-rule="evenodd">
        <g id="LSH-00-Copy-61" transform="translate(-688.000000, -2854.000000)" fill="#B3472D">
            <g id="Group-5" transform="translate(688.000000, 2854.000000)">
                <path d="M55.9243045,22.1664121 C55.9243045,17.7711391 52.8187075,12.3741603 49.0244424,10.1756973 L34.9380479,2.01658943 C31.1421352,-0.181873594 24.9325889,-0.181873594 21.1366762,2.01658943 L7.05028167,10.1756973 C3.25436903,12.3741603 0.148772097,17.7711391 0.148772097,22.1664121 L0.148772097,54.7268066 C0.148772097,56.9335345 1.93304874,58.7237115 4.13250333,58.7237115 C6.33360545,58.7220585 8.11623457,56.9335345 8.1178821,54.7268066 L8.1178821,22.7862795 C8.1178821,20.5878165 9.6698568,17.8885006 11.5678131,16.7892691 L24.5866073,9.25002866 C26.4862111,8.15079715 29.5901605,8.15079715 31.4881168,9.25002866 L44.506911,16.7909221 C46.4048673,17.8885006 47.956842,20.5878165 47.956842,22.7862795 L47.9584895,41.3178351 C47.9584895,43.526216 49.7411186,45.3163931 51.9405732,45.318046 C53.4892529,45.3163931 54.828696,44.4303959 55.4877086,43.1361128 C55.7661414,42.5906295 55.9275995,41.9724151 55.9275995,41.3194881 L55.9243045,22.1664121 Z" id="Fill-13"></path>
                <path d="M55.925952,55.4883343 C55.925952,57.6950622 54.1416753,59.4835863 51.9405732,59.4852393 C49.7411186,59.4852393 47.9584895,57.6950622 47.9584895,55.4883343 L47.9584895,52.5658662 C47.9584895,50.3574853 49.7411186,48.5673083 51.9405732,48.5673083 C54.1416753,48.5673083 55.925952,50.3574853 55.925952,52.5642132 L55.925952,55.4883343 Z" id="Fill-14"></path>
                <path d="M28.0370325,26.331921 C25.8375779,26.333574 24.0533013,28.1220981 24.0533013,30.330479 L24.0549488,55.4888302 C24.0549488,57.6955581 25.8375779,59.4857352 28.0370325,59.4857352 C30.2381347,59.4857352 32.0207638,57.6955581 32.0207638,55.4888302 L32.0207638,30.330479 C32.0207638,28.1220981 30.2364871,26.333574 28.0370325,26.331921" id="Fill-15"></path>
                <path d="M39.9880615,36.9721515 C42.1858686,36.9721515 43.9684977,35.1852804 43.9717927,32.9802054 L43.9717927,25.0938392 C43.9717927,22.8953762 42.419818,20.1977133 40.5218617,19.0984818 L31.4884463,13.865148 C29.59049,12.7659165 26.4848931,12.7659165 24.5869368,13.865148 L15.5518739,19.0984818 C13.6555651,20.1977133 12.1019428,22.8953762 12.1019428,25.0938392 L12.1019428,61.4874936 C12.1019428,63.6859566 13.6555651,66.3819665 15.5518739,67.481198 L24.5869368,72.7161848 C26.4848931,73.8154163 29.59049,73.8154163 31.4884463,72.7161848 L40.5218617,67.481198 C42.419818,66.3819665 43.9717927,63.6859566 43.9717927,61.4874936 L43.9717927,44.2138556 C43.9684977,42.0087806 42.1858686,40.2219096 39.9880615,40.2219096 C37.7886069,40.2219096 36.0043303,42.0120866 36.0043303,44.2188145 L36.0043303,58.8708267 C36.0043303,59.9684052 35.2283429,61.3172367 34.2793647,61.8676789 L29.7618333,64.4843458 C28.8128551,65.0347881 27.2608804,65.0347881 26.3119023,64.4843458 L21.7960184,61.8676789 C20.8470402,61.3172367 20.0710528,59.9684052 20.0710528,58.8708267 L20.0710528,27.7105061 C20.0710528,26.6112746 20.8470402,25.2640961 21.7960184,24.7120009 L26.3119023,22.095334 C27.2608804,21.5448918 28.8128551,21.5448918 29.7618333,22.095334 L34.2793647,24.7120009 C35.2283429,25.2640961 36.0043303,26.6112746 36.0043303,27.7105061 L36.0043303,32.9752465 C36.0043303,35.1819744 37.7886069,36.9721515 39.9880615,36.9721515" id="Fill-16"></path>
            </g>
        </g>
    </g>
</svg>

<svg width="56" height="74" viewBox="0 0 56 74" xmlns="http://www.w3.org/2000/svg"><title>Group 5</title><g fill="#B3472D" fill-rule="evenodd"><path d="M55.924 22.166c0-4.395-3.105-9.792-6.9-11.99l-14.086-8.16c-3.796-2.198-10.005-2.198-13.801 0L7.05 10.177C3.254 12.374.15 17.77.15 22.166v32.56a3.991 3.991 0 0 0 3.984 3.998 3.994 3.994 0 0 0 3.985-3.997v-31.94c0-2.2 1.552-4.898 3.45-5.998L24.587 9.25c1.9-1.1 5.003-1.1 6.901 0l13.019 7.54c1.898 1.099 3.45 3.798 3.45 5.996l.001 18.532a3.993 3.993 0 0 0 3.983 4 3.982 3.982 0 0 0 3.547-2.182 3.99 3.99 0 0 0 .44-1.817l-.004-19.153zm.002 33.322a3.993 3.993 0 0 1-3.985 3.997 3.99 3.99 0 0 1-3.983-3.997v-2.922a3.99 3.99 0 0 1 3.983-3.999 3.992 3.992 0 0 1 3.985 3.997v2.924z"/><path d="M28.037 26.332a3.993 3.993 0 0 0-3.984 3.998l.002 25.159a3.99 3.99 0 0 0 3.982 3.997 3.99 3.99 0 0 0 3.984-3.997V30.33a3.993 3.993 0 0 0-3.984-3.998"/><path d="M39.988 36.972a3.991 3.991 0 0 0 3.984-3.992v-7.886c0-2.199-1.552-4.896-3.45-5.996l-9.034-5.233c-1.898-1.1-5.003-1.1-6.901 0l-9.035 5.233c-1.896 1.1-3.45 3.797-3.45 5.996v36.393c0 2.199 1.554 4.895 3.45 5.994l9.035 5.235c1.898 1.1 5.003 1.1 6.901 0l9.034-5.235c1.898-1.099 3.45-3.795 3.45-5.994V44.214a3.991 3.991 0 0 0-3.984-3.992c-2.2 0-3.984 1.79-3.984 3.997V58.87c0 1.097-.776 2.446-1.725 2.997l-4.517 2.616c-.95.55-2.501.55-3.45 0l-4.516-2.616c-.949-.55-1.725-1.9-1.725-2.997V27.71c0-1.1.776-2.447 1.725-2.999l4.516-2.617c.949-.55 2.5-.55 3.45 0l4.517 2.617c.95.552 1.725 1.9 1.725 2.999v5.264a3.991 3.991 0 0 0 3.984 3.997"/></g></svg>
